svgs/light/object-group.svg

<svg xmlns="http://www.w3.org/2000/svg" viewBox="0 0 576 512"><!--! Font Awesome Pro 6.4.2 by @fontawesome - https://fontawesome.com License - https://fontawesome.com/license (Commercial License) Copyright 2023 Fonticons, Inc. --><path d="M64 125.3C45.4 118.7 32 100.9 32 80c0-26.5 21.5-48 48-48c20.9 0 38.7 13.4 45.3 32H450.7c6.6-18.6 24.4-32 45.3-32c26.5 0 48 21.5 48 48c0 20.9-13.4 38.7-32 45.3V386.7c18.6 6.6 32 24.4 32 45.3c0 26.5-21.5 48-48 48c-20.9 0-38.7-13.4-45.3-32H125.3c-6.6 18.6-24.4 32-45.3 32c-26.5 0-48-21.5-48-48c0-20.9 13.4-38.7 32-45.3V125.3zM125.3 96c-4.8 13.6-15.6 24.4-29.3 29.3V386.7c13.6 4.8 24.4 15.6 29.3 29.3H450.7c4.8-13.6 15.6-24.4 29.3-29.3V125.3c-13.6-4.8-24.4-15.6-29.3-29.3H125.3zM496 416a16 16 0 1 0 0 32 16 16 0 1 0 0-32zM96 432a16 16 0 1 0 -32 0 16 16 0 1 0 32 0zM496 64a16 16 0 1 0 0 32 16 16 0 1 0 0-32zM96 80A16 16 0 1 0 64 80a16 16 0 1 0 32 0zm80 48h96c26.5 0 48 21.5 48 48v64c0 26.5-21.5 48-48 48H176c-26.5 0-48-21.5-48-48V176c0-26.5 21.5-48 48-48zm-16 48v64c0 8.8 7.2 16 16 16h96c8.8 0 16-7.2 16-16V176c0-8.8-7.2-16-16-16H176c-8.8 0-16 7.2-16 16zm192 64c0-8.8 7.2-16 16-16h32c26.5 0 48 21.5 48 48v64c0 26.5-21.5 48-48 48H304c-26.5 0-48-21.5-48-48c0-8.8 7.2-16 16-16s16 7.2 16 16s7.2 16 16 16h96c8.8 0 16-7.2 16-16V272c0-8.8-7.2-16-16-16H368c-8.8 0-16-7.2-16-16z"/></svg>

<svg xmlns="http://www.w3.org/2000/svg" viewBox="0 0 576 512"><!--! Font Awesome Pro 6.1.1 by @fontawesome - https://fontawesome.com License - https://fontawesome.com/license (Commercial License) Copyright 2022 Fonticons, Inc. --><path d="M272 128C298.5 128 320 149.5 320 176V240C320 266.5 298.5 288 272 288H176C149.5 288 128 266.5 128 240V176C128 149.5 149.5 128 176 128H272zM160 240C160 248.8 167.2 256 176 256H272C280.8 256 288 248.8 288 240V176C288 167.2 280.8 160 272 160H176C167.2 160 160 167.2 160 176V240zM352 240C352 231.2 359.2 224 368 224H400C426.5 224 448 245.5 448 272V336C448 362.5 426.5 384 400 384H304C277.5 384 256 362.5 256 336C256 327.2 263.2 320 272 320C280.8 320 288 327.2 288 336C288 344.8 295.2 352 304 352H400C408.8 352 416 344.8 416 336V272C416 263.2 408.8 256 400 256H368C359.2 256 352 248.8 352 240zM64 125.3C45.36 118.7 32 100.9 32 80C32 53.49 53.49 32 80 32C100.9 32 118.7 45.36 125.3 64H450.7C457.3 45.36 475.1 32 496 32C522.5 32 544 53.49 544 80C544 100.9 530.6 118.7 512 125.3V386.7C530.6 393.3 544 411.1 544 432C544 458.5 522.5 480 496 480C475.1 480 457.3 466.6 450.7 448H125.3C118.7 466.6 100.9 480 80 480C53.49 480 32 458.5 32 432C32 411.1 45.36 393.3 64 386.7V125.3zM96 125.3V386.7C109.6 391.6 120.4 402.4 125.3 416H450.7C455.6 402.4 466.4 391.6 480 386.7V125.3C466.4 120.4 455.6 109.6 450.7 96H125.3C120.4 109.6 109.6 120.4 96 125.3zM480 432C480 440.8 487.2 448 496 448C504.8 448 512 440.8 512 432C512 423.2 504.8 416 496 416C487.2 416 480 423.2 480 432zM96 432C96 423.2 88.84 416 80 416C71.16 416 64 423.2 64 432C64 440.8 71.16 448 80 448C88.84 448 96 440.8 96 432zM480 80C480 88.84 487.2 96 496 96C504.8 96 512 88.84 512 80C512 71.16 504.8 64 496 64C487.2 64 480 71.16 480 80zM96 80C96 71.16 88.84 64 80 64C71.16 64 64 71.16 64 80C64 88.84 71.16 96 80 96C88.84 96 96 88.84 96 80z"/></svg>
